scribble.svg

<?xml version="1.0" encoding="UTF-8" standalone="no"?>
<!-- Created with Inkscape (http://www.inkscape.org/) -->

<svg
   width="19.999939mm"
   height="16.750938mm"
   viewBox="0 0 19.999938 16.750938"
   version="1.1"
   id="svg5"
   inkscape:version="1.2.2 (b0a8486541, 2022-12-01)"
   sodipodi:docname="scribble.svg"
   xmlns:inkscape="http://www.inkscape.org/namespaces/inkscape"
   xmlns:sodipodi="http://sodipodi.sourceforge.net/DTD/sodipodi-0.dtd"
   xmlns="http://www.w3.org/2000/svg"
   xmlns:svg="http://www.w3.org/2000/svg">
  <sodipodi:namedview
     id="namedview7"
     pagecolor="#ffffff"
     bordercolor="#000000"
     borderopacity="0.25"
     inkscape:pageshadow="2"
     inkscape:pageopacity="0.0"
     inkscape:pagecheckerboard="0"
     inkscape:document-units="mm"
     showgrid="false"
     inkscape:zoom="19.329081"
     inkscape:cx="25.738419"
     inkscape:cy="46.794774"
     inkscape:window-width="1737"
     inkscape:window-height="1133"
     inkscape:window-x="0"
     inkscape:window-y="0"
     inkscape:window-maximized="1"
     inkscape:current-layer="layer1"
     inkscape:showpageshadow="2"
     inkscape:deskcolor="#d1d1d1"
     fit-margin-top="0"
     fit-margin-left="0"
     fit-margin-right="0"
     fit-margin-bottom="0" />
  <defs
     id="defs2" />
  <g
     inkscape:label="Layer 1"
     inkscape:groupmode="layer"
     id="layer1"
     style="display:inline"
     transform="translate(-0.66682548,-0.55843154)">
    <path
       id="path921"
       style="fill:#ff2ae9;stroke:#e4f60c;stroke-width:0.0358116"
       d="M -1.3687092 7.258281 C -1.4250251 7.2586796 -1.4816513 7.2608657 -1.5382079 7.2655157 C -2.0730383 7.3064396 -2.6121515 7.3434688 -3.1360432 7.4634364 C -3.753472 7.6231434 -4.3710805 7.8055578 -4.9478189 8.0809698 C -5.4442051 8.3710215 -5.933203 8.6762953 -6.3916584 9.0240647 C -6.8016864 9.3659215 -7.1961255 9.7248224 -7.5585122 10.117538 C -7.9492497 10.518173 -8.3276549 10.932129 -8.6705891 11.374826 C -8.8379233 11.592843 -8.9825614 11.821589 -9.1031208 12.06884 L -7.3621418 12.750969 C -7.3376768 12.612025 -7.2608654 12.487192 -7.1978108 12.362879 C -6.9767615 11.959997 -6.6613726 11.632081 -6.3425658 11.307129 C -6.0101834 10.97701 -5.6756442 10.651374 -5.3064533 10.362484 C -4.9391609 10.059332 -4.5390094 9.8009003 -4.1163451 9.5826869 C -3.6828851 9.3526285 -3.2102043 9.2215799 -2.7340005 9.1150152 C -2.3214246 9.0264343 -1.900973 9.0132585 -1.480847 9.0209641 C -1.2244625 9.0092471 -0.97938455 9.0602751 -0.74239083 9.1548061 C -0.71993085 9.166644 -0.69534468 9.175173 -0.6746947 9.189946 C -0.67077471 9.192756 -0.66812618 9.2173439 -0.66487618 9.2230189 C -0.6465812 9.2550579 -0.62503126 9.2852853 -0.60544828 9.3165533 C -0.5026634 9.4630527 -0.43928801 9.6278304 -0.38168933 9.7955938 C -0.33870037 9.9306796 -0.3255442 10.071233 -0.3227782 10.212106 C -0.3175782 10.285486 -0.31396644 10.359188 -0.31347644 10.432764 C -0.31320614 10.482814 -0.30753147 10.558665 -0.32484526 10.547486 C -0.33889124 10.560116 -0.32056326 10.518252 -0.32536202 10.524232 C -0.33806501 10.540251 -0.34300154 10.561039 -0.35275053 10.579009 C -0.39045449 10.648488 -0.43566427 10.716252 -0.47522367 10.784681 C -0.46848368 10.773001 -0.44707611 10.738321 -0.4545531 10.749541 C -0.63479914 11.019957 -0.8344191 11.276039 -1.0260944 11.53864 C -1.4079823 11.997226 -1.7878845 12.458461 -2.147473 12.934937 C -2.457126 13.343632 -2.7109616 13.785619 -2.9577595 14.233566 C -3.0960605 14.496688 -3.2009193 14.781771 -3.2424966 15.077442 C -3.2624766 15.219525 -3.2644644 15.376565 -3.2693684 15.519792 C -3.2735784 15.774084 -3.2663386 16.024069 -3.2006387 16.271684 C -3.1300168 16.537863 -3.0069754 16.781587 -2.8833454 17.025643 C -2.677678 17.446112 -2.3341817 17.772756 -2.0198322 18.111882 C -1.7669875 18.422704 -1.4262103 18.637312 -1.0757038 18.821399 C -0.63306196 19.028549 -0.34642665 19.083614 0.13972587 18.850338 C 0.23802067 18.803168 0.31162543 18.716374 0.39759127 18.649317 C 0.54862697 18.529045 0.65688313 18.364686 0.79756685 18.234355 C 0.84383681 18.191495 0.91826818 18.138445 0.96809908 18.101547 C 1.0154589 18.074717 1.0619722 18.045122 1.110726 18.020932 C 1.2237578 17.964842 1.3427681 17.922102 1.4574749 17.86952 C 1.6488515 17.7818 1.8326345 17.68364 2.0160971 17.580648 C 2.3957363 17.35377 2.8053254 17.184628 3.2056886 16.998772 C 3.521425 16.812709 3.8812105 16.734428 4.2180299 16.600346 C 4.3702457 16.529556 4.5269013 16.47597 4.6872519 16.437049 C 4.6948519 16.549777 4.6915866 16.663089 4.6944866 16.776046 C 4.6968866 16.954875 4.701071 17.133608 4.700171 17.312448 C 4.716141 17.484673 4.7039211 17.651599 4.6758831 17.820944 C 4.6779831 17.795074 4.6799843 17.769299 4.6820843 17.743429 C 4.6787843 17.745529 4.6835843 17.735945 4.682601 17.737745 C 4.6244711 17.853583 4.5621872 17.964629 4.4975994 18.077259 C 4.3020508 18.405638 4.0259776 18.669563 3.7679282 18.946973 C 3.5146006 19.177432 3.2825738 19.426203 3.0728802 19.696798 C 2.9621594 19.863685 2.8551447 20.032409 2.7576539 20.207361 C 2.661044 20.39365 2.5479436 20.583477 2.5742026 20.809392 C 2.5982226 21.016103 2.6746807 21.215753 2.7607545 21.405221 C 2.8033145 21.498901 2.8895534 21.565326 2.9540244 21.645517 C 3.2842266 22.010102 3.6531408 22.259098 4.0800538 22.495077 C 4.6909126 22.811921 5.3071007 23.123178 5.9445395 23.383395 C 6.3442547 23.56168 6.7703079 23.664252 7.1930421 23.770451 C 7.5599128 23.860201 7.9389825 23.875661 8.3118369 23.931682 C 8.5749433 23.957832 8.8584573 24.008959 9.1190227 23.933749 C 9.2103727 23.907369 9.2964716 23.865199 9.3851564 23.830913 C 9.6232278 23.663625 9.6501713 23.676415 9.8202719 23.41285 C 9.8830219 23.315611 9.9055289 23.174083 9.9468792 23.068169 C 10.005179 22.918838 10.061663 22.821842 10.136532 22.681629 C 10.370719 22.349587 10.583953 22.001518 10.846566 21.690992 L 9.5117636 20.60682 C 9.2014602 21.001813 8.8696196 21.382711 8.6379152 21.832585 C 8.5757452 21.937481 8.5167169 22.044321 8.4539471 22.148845 C 8.1668795 22.134785 7.8808599 22.105917 7.5981853 22.052727 C 7.2426126 21.975489 6.8875362 21.889477 6.537785 21.789694 C 5.996315 21.612031 5.4667579 21.393134 5.0009279 21.058472 C 4.8584171 20.948216 4.7096768 20.842394 4.5704632 20.72671 C 4.69295 20.507137 4.8655289 20.324024 5.0345175 20.139148 C 5.3697919 19.786709 5.6972108 19.422808 5.9801962 19.026555 C 6.2082158 18.709873 6.4514588 18.426343 6.4990276 18.021448 C 6.5153576 17.786243 6.5193256 17.551206 6.5233156 17.315548 C 6.5230456 17.127782 6.5293 16.940081 6.529 16.752275 C 6.528373 16.536686 6.5081427 16.322502 6.4835247 16.108387 C 6.4298009 15.731262 6.3456316 15.366793 6.090267 15.067623 C 6.0340212 15.014438 5.9823087 14.956744 5.9218019 14.90846 C 5.5764585 14.632873 5.1400704 14.523151 4.7063722 14.60822 C 4.327453 14.70375 3.9495 14.806239 3.5824098 14.941016 C 3.2039786 15.078501 2.8451692 15.260458 2.4749838 15.41799 C 2.0442258 15.616346 1.6321293 15.851611 1.1959921 16.038624 C 0.80878 16.231494 0.4258712 16.432683 0.038440063 16.625151 C -0.048960759 16.676841 -0.13921541 16.723651 -0.22355945 16.78018 C -0.34433721 16.86114 -0.45286592 16.956979 -0.5573892 17.057166 C -0.63331393 17.002646 -0.7037447 16.939034 -0.77236316 16.873198 C -0.98788582 16.676413 -1.171389 16.451086 -1.3268513 16.203988 C -1.4335468 16.014862 -1.5249843 15.840299 -1.5041014 15.615394 C -1.4867095 15.41324 -1.4719434 15.208291 -1.3940306 15.018531 C -1.2266802 14.636815 -0.99820113 14.285313 -0.77339669 13.935393 C -0.45346723 13.47642 -0.10087654 13.042883 0.279769 12.63263 C 0.39144878 12.514811 0.5231909 12.379885 0.62910168 12.254875 C 0.66523165 12.212225 0.69601862 12.164975 0.73245455 12.122584 C 0.81112437 12.031044 0.90515086 11.953097 0.98205172 11.860067 C 1.0363117 11.794427 1.0833266 11.723382 1.1339804 11.654912 C 1.2576202 11.392113 1.4338396 11.155588 1.4760784 10.858061 C 1.5123284 10.595084 1.5167801 10.332057 1.5029502 10.066895 C 1.472176 9.7797798 1.4144348 9.4966428 1.316915 9.2240525 C 1.2051042 8.8874117 1.071665 8.554416 0.85544446 8.2695888 C 0.57245802 7.8906808 0.26483137 7.5781636 -0.20702299 7.4531011 C -0.58619693 7.350415 -0.97449792 7.2554912 -1.3687092 7.258281 z " />
  </g>
</svg>

<?xml version="1.0" encoding="UTF-8" standalone="no"?>
<!-- Created with Inkscape (http://www.inkscape.org/) -->

<svg
   width="19.999939mm"
   height="16.750938mm"
   viewBox="0 0 19.999938 16.750938"
   version="1.1"
   id="svg5"
   inkscape:version="1.1.2 (0a00cf5339, 2022-02-04)"
   sodipodi:docname="scribble.svg"
   xmlns:inkscape="http://www.inkscape.org/namespaces/inkscape"
   xmlns:sodipodi="http://sodipodi.sourceforge.net/DTD/sodipodi-0.dtd"
   xmlns="http://www.w3.org/2000/svg"
   xmlns:svg="http://www.w3.org/2000/svg">
  <sodipodi:namedview
     id="namedview7"
     pagecolor="#ffffff"
     bordercolor="#000000"
     borderopacity="0.25"
     inkscape:pageshadow="2"
     inkscape:pageopacity="0.0"
     inkscape:pagecheckerboard="0"
     inkscape:document-units="mm"
     showgrid="false"
     inkscape:zoom="2.2622045"
     inkscape:cx="102.77585"
     inkscape:cy="6.8517235"
     inkscape:window-width="1433"
     inkscape:window-height="938"
     inkscape:window-x="0"
     inkscape:window-y="0"
     inkscape:window-maximized="1"
     inkscape:current-layer="layer1"
     inkscape:showpageshadow="2"
     inkscape:deskcolor="#d1d1d1"
     fit-margin-top="0"
     fit-margin-left="0"
     fit-margin-right="0"
     fit-margin-bottom="0" />
  <defs
     id="defs2" />
  <g
     inkscape:label="Layer 1"
     inkscape:groupmode="layer"
     id="layer1"
     style="display:inline"
     transform="translate(-0.66682548,-0.55843154)">
    <path
       id="path921"
       style="fill:#ff2ae9;stroke:#e4f60c;stroke-width:0.0358116"
       d="m -1.3687368,7.2580904 c -0.056316,3.986e-4 -0.1127229,0.00282 -0.1692795,0.00747 -0.5348314,0.040924 -1.0741383,0.077944 -1.598031,0.197912 -0.61743,0.1597072 -1.2351257,0.3422071 -1.8118653,0.6176197 -0.4963872,0.2900523 -0.9851697,0.5952101 -1.4436261,0.9429801 -0.4100288,0.3418576 -0.8046926,0.7007571 -1.1670801,1.0934738 -0.3907381,0.400635 -0.7692551,0.81475 -1.1121899,1.257447 -0.1673346,0.218019 -0.3119975,0.446698 -0.4325571,0.693949 l 1.7409829,0.681867 6.99e-5,-7e-5 c 0.024465,-0.138944 0.1014063,-0.263759 0.1644611,-0.388072 0.2210497,-0.402882 0.5366695,-0.730811 0.8554769,-1.055763 0.332383,-0.330121 0.6665293,-0.655487 1.0357208,-0.944377 0.3672932,-0.303154 0.7676001,-0.5618415 1.1902652,-0.7800553 0.4334608,-0.2300588 0.9061764,-0.3611191 1.382381,-0.467684 0.4125767,-0.088581 0.8331294,-0.1016335 1.2532562,-0.093928 0.2563851,-0.011717 0.50150954,0.039203 0.73850374,0.1337337 0.02246,0.011838 0.04674,0.020703 0.06739,0.035476 0.00392,0.00281 0.00674,0.027427 0.00999,0.033102 0.018295,0.032039 0.039847,0.062101 0.05943,0.093369 0.1027851,0.1464998 0.1659425,0.3113033 0.2235413,0.4790671 0.042989,0.135086 0.056244,0.2755525 0.05901,0.4164255 0.0052,0.07338 0.00873,0.147032 0.00922,0.220608 2.703e-4,0.05005 0.00621,0.125778 -0.011104,0.114599 -0.014046,0.01263 0.00424,-0.02889 -5.588e-4,-0.02291 -0.012703,0.01602 -0.017836,0.03685 -0.027585,0.05482 -0.037704,0.06948 -0.082516,0.136956 -0.1220755,0.205385 0.00674,-0.01168 0.027729,-0.04628 0.020252,-0.03506 -0.1802464,0.270418 -0.3799227,0.526742 -0.57159844,0.789343 -0.3818885,0.458588 -0.7615391,0.919451 -1.1211284,1.395929 -0.3096536,0.408695 -0.563705,0.851121 -0.8105033,1.299068 -0.1383014,0.263122 -0.2429998,0.548074 -0.2845773,0.843745 -0.01998,0.142083 -0.021773,0.299037 -0.026677,0.442264 -0.00421,0.254292 0.00267,0.504155 0.068368,0.751772 0.070622,0.266179 0.1938388,0.509949 0.317469,0.754007 0.2056678,0.420469 0.5489487,0.747225 0.8632988,1.086351 0.2528453,0.310822 0.5938693,0.525573 0.9443764,0.709662 0.44264274,0.20715 0.72911294,0.261977 1.21526644,0.0287 0.098295,-0.04717 0.171934,-0.134137 0.2579,-0.201194 0.151036,-0.120272 0.259399,-0.284349 0.400083,-0.41468 0.04627,-0.04286 0.120985,-0.09593 0.170816,-0.132826 0.04736,-0.02683 0.09336,-0.05626 0.14211396,-0.08045 0.113032,-0.05609 0.232093,-0.0991 0.3468,-0.151681 0.191377,-0.08772 0.375216,-0.186055 0.558679,-0.289047 0.37964,-0.22688 0.789552,-0.395659 1.189916,-0.581515 0.315737,-0.186063 0.675437,-0.264326 1.012257,-0.398408 0.152216,-0.07079 0.30859,-0.124702 0.468941,-0.163623 0.0076,0.112728 0.0047,0.226022 0.0076,0.338979 0.0024,0.178829 0.0066,0.357771 0.0057,0.536611 0.01597,0.172227 0.0036,0.339332 -0.02444,0.508677 0.0021,-0.02587 0.0043,-0.05179 0.0064,-0.07766 -0.0033,0.0021 0.0014,-0.0078 4.19e-4,-0.006 -0.05813,0.115838 -0.120684,0.227116 -0.185272,0.339746 -0.195549,0.328379 -0.471445,0.592453 -0.729495,0.869863 -0.253328,0.230459 -0.485442,0.47901 -0.695136,0.749607 -0.110721,0.166887 -0.217534,0.335469 -0.315025,0.510423 -0.09661,0.186289 -0.209995,0.376341 -0.183736,0.602256 0.02402,0.206711 0.100455,0.406293 0.186529,0.595761 0.04256,0.09368 0.128902,0.16039 0.193373,0.240581 0.330203,0.364587 0.699243,0.613213 1.126157,0.849192 0.61086,0.316844 1.226941,0.628152 1.864381,0.888369 0.399716,0.178285 0.825703,0.280754 1.248438,0.386955 0.3668715,0.08975 0.7458995,0.105158 1.1187545,0.161179 0.263107,0.02615 0.546725,0.07754 0.807291,0.0023 0.09135,-0.02638 0.177316,-0.06858 0.266001,-0.102867 0.238072,-0.167288 0.26504,-0.154676 0.435141,-0.418241 0.06275,-0.09724 0.08519,-0.238791 0.12654,-0.344705 0.0583,-0.149331 0.1150124,-0.245904 0.1898814,-0.386117 0.234189,-0.332042 0.447329,-0.680358 0.709942,-0.990886 L 9.5116035,20.606953 c -0.310304,0.394993 -0.641859,0.775726 -0.873564,1.225602 -0.06217,0.104896 -0.121175,0.211758 -0.183945,0.316282 -0.287068,-0.01406 -0.573361,-0.04283 -0.856036,-0.09602 C 7.242485,21.975577 6.887787,21.889253 6.538035,21.78947 5.996564,21.611807 5.466522,21.39317 5.000691,21.058508 4.85818,20.948252 4.709792,20.842339 4.570578,20.726653 4.693065,20.50708 4.865432,20.323868 5.034421,20.138992 c 0.335275,-0.352441 0.662927,-0.716006 0.945913,-1.112259 0.22802,-0.316682 0.470885,-0.600448 0.518454,-1.005343 0.01633,-0.235207 0.02066,-0.470232 0.02465,-0.70589 -2.7e-4,-0.187766 0.0057,-0.375552 0.0054,-0.563358 C 6.528211,16.536553 6.508112,16.322307 6.483494,16.108192 6.42977,15.731067 6.345759,15.366962 6.090394,15.067792 6.034148,15.014607 5.98218,14.956503 5.921673,14.908219 5.576329,14.632632 5.140315,14.52328 4.706616,14.608349 c -0.37892,0.09553 -0.75697,0.198125 -1.124061,0.332902 -0.378432,0.137485 -0.737395,0.319301 -1.107581,0.476833 -0.430759,0.198358 -0.842608,0.433679 -1.278746,0.620692 -0.38721296,0.192872 -0.77015096,0.394145 -1.15758286,0.586613 -0.087401,0.05169 -0.1778158,0.0985 -0.26216,0.155033 -0.120778,0.08096 -0.2293569,0.176778 -0.3338804,0.276965 -0.0759249,-0.05452 -0.1461236,-0.118179 -0.2147422,-0.184015 -0.2155231,-0.196785 -0.39923574,-0.422059 -0.55469824,-0.669157 -0.1066957,-0.189126 -0.1979142,-0.363731 -0.1770313,-0.588638 0.017392,-0.202154 0.032147,-0.407328 0.1100596,-0.597088 0.1673508,-0.381716 0.39546844,-0.733427 0.62027334,-1.083349 0.3199301,-0.458973 0.6726028,-0.892097 1.0532491,-1.30235 0.11168,-0.117819 0.243403,-0.253006 0.349314,-0.378016 0.03613,-0.04265 0.06685,-0.08974 0.103286,-0.132127 0.07867,-0.09154 0.172619,-0.16941 0.24952,-0.26244 0.05426,-0.06564 0.10130596,-0.136914 0.15195996,-0.205384 0.12364,-0.262799 0.300231,-0.499359 0.34247,-0.796886 0.03625,-0.262979 0.04058,-0.526136 0.02675,-0.791298 C 1.472241,9.779523 1.414492,9.4966023 1.316972,9.2240114 1.205161,8.88737 1.071445,8.5541967 0.85522404,8.2693689 0.57223704,7.8904603 0.26461204,7.5780622 -0.20724326,7.4529995 -0.58641796,7.3503132 -0.97452476,7.2553006 -1.3687368,7.2580904 Z M 5.044058,16.375589 c 0.01004,0.0024 0.03907,0.002 0.0301,0.007 -0.04228,0.02394 -0.0976,0.02185 -0.15231,0.0084 0.04049,-0.006 0.08121,-0.01127 0.122211,-0.01543 z m -5.39097096,0.796537 c 0.037541,0.0037 0.0761,0.0092 0.1173225,0.01774 0.00419,8.11e-4 -0.088938,8.11e-4 -0.078634,-0.0034 -0.01324,-0.0042 -0.02585,-0.0095 -0.038689,-0.01439 z m 9.06365646,4.966305 c 0.02258,0.0014 0.05029,0.0082 0.03687,0.01327 -0.03919,0.01488 -0.08212,0.0119 -0.125284,0.0066 0.02287,-0.0072 0.04583,-0.01421 0.06928,-0.01913 0.0047,-9.84e-4 0.01161,-0.0012 0.01913,-6.99e-4 z M 8.3434765,22.3207 c -0.121497,0.173351 -0.131795,0.125589 0,0 z" />
  </g>
</svg>
